X: 461
T: A Waltz For Elizabeth
R: waltz
M: 3/4
K: Gmajor
B2|:B3AB2|D2G2B2|B3AB2|d4B2|B3AB2|D2E2G2|A6-|A4B2|
B3AB2|D2G2B2|B3AB2|e4c2|d4B2|c3AF2|1 G6-|G4B2:|2 G6-|G4E2||
K: C Major
|:C4C2|E4G2|F3GA2|G4B2|c3de2|g4a2|d'4c'2|b4G2|
C4E2|G4c2|A3Bc2|d2e2f2|g3ag2|B4d2|c6-|1 c4E2:|2 c4B2||
K: G Maj
|:B3AB2|D2G2B2|B3AB2|d4B2|B3AB2|D2E2G2|A6-|A4B2|
B3AB2|D2G2B2|B3AB2|e4c2|d4B2|c3AF2|1 G6-|G4B2:|2 G6-|G4d'2||
K: D Maj
d'3c'b2|a4A2|f3gf2|^g4b2|a6-|a4A2|d4B2|f4d'2|
d'4d'2|g4g2|a3fd2|c4A2|d4d2|d4A2|d4B2|f4d'2|
d'3c'b2|a4A2|f3gf2|^g4b2|a6-|a4A2|d4B2|f4d'2|
d'4d'2|g4g2|a3fd2|c4A2|d4d2|d4B2|
K: G Maj
|:B3AB2|D2G2B2|B3AB2|d4B2|B3AB2|D2E2G2|A6-|A4B2|
B3AB2|D2G2B2|B3AB2|e4c2|d4B2|c3AF2|1 G6-|G4B2:|2 G6-|G4||

